X:44
T:Hanske van Leuven
C:Traditioneel
O:Westerlo (Vlaanderen)
Z:Bert Van Vreckem <http://flanders.blackmill.net/music/>
M:2/4
L:1/8
K:D
A>A A>A|A>G F>A|A>A B>F|A2G2|G>G G>G|G>F E>A|A>A B>c|d2 z2:|
F4|[D4A4]|(3ABA G>F|A2G2|e2d2|c3B| A>A (3ABc|d2z2|]
